svgs/duotone/chart-bullet.svg

<svg xmlns="http://www.w3.org/2000/svg" viewBox="0 0 512 512"><!--! Font Awesome Pro 6.6.0 by @fontawesome - https://fontawesome.com License - https://fontawesome.com/license (Commercial License) Copyright 2024 Fonticons, Inc. --><defs><style>.fa-secondary{opacity:.4}</style></defs><path class="fa-secondary" d="M160 64l0 64 80 0 0-64-80 0zm0 96l0 64 80 0 0-64-80 0zm96 128l0 64 80 0 0-64-80 0zm0 96l0 64 80 0 0-64-80 0zM288 64l0 64 160 0 0 32-160 0 0 64 176 0c26.5 0 48-21.5 48-48l0-64c0-26.5-21.5-48-48-48L288 64zm96 224l0 64 64 0 0 32-64 0 0 64 80 0c26.5 0 48-21.5 48-48l0-64c0-26.5-21.5-48-48-48l-80 0z"/><path class="fa-primary" d="M264 32c-13.3 0-24 10.7-24 24l0 176c0 13.3 10.7 24 24 24s24-10.7 24-24l0-176c0-13.3-10.7-24-24-24zM48 64C21.5 64 0 85.5 0 112l0 64c0 26.5 21.5 48 48 48l112 0 0-160L48 64zm0 224c-26.5 0-48 21.5-48 48l0 64c0 26.5 21.5 48 48 48l208 0 0-160L48 288zm336-8c0-13.3-10.7-24-24-24s-24 10.7-24 24l0 176c0 13.3 10.7 24 24 24s24-10.7 24-24l0-176z"/></svg>

<svg xmlns="http://www.w3.org/2000/svg" viewBox="0 0 512 512"><!--! Font Awesome Pro 6.4.0 by @fontawesome - https://fontawesome.com License - https://fontawesome.com/license (Commercial License) Copyright 2023 Fonticons, Inc. --><defs><style>.fa-secondary{opacity:.4}</style></defs><path class="fa-primary" d="M264 32c-13.3 0-24 10.7-24 24V232c0 13.3 10.7 24 24 24s24-10.7 24-24V56c0-13.3-10.7-24-24-24zM48 64C21.5 64 0 85.5 0 112v64c0 26.5 21.5 48 48 48H160V64H48zm0 224c-26.5 0-48 21.5-48 48v64c0 26.5 21.5 48 48 48H256V288H48zm336-8c0-13.3-10.7-24-24-24s-24 10.7-24 24V456c0 13.3 10.7 24 24 24s24-10.7 24-24V280z"/><path class="fa-secondary" d="M160 64v64h80V64H160zm288 96H288v64H464c26.5 0 48-21.5 48-48V112c0-26.5-21.5-48-48-48H288v64H448v32zm-288 0v64h80V160H160zM384 384v64h80c26.5 0 48-21.5 48-48V336c0-26.5-21.5-48-48-48H384v64h64v32H384zm-48-32V288H256v64h80zm0 32H256v64h80V384z"/></svg>
